web/crux-ui/public/dyrector_io_logo_white.svg

<svg width="2458" height="415" viewBox="0 0 2458 415" fill="none" xmlns="http://www.w3.org/2000/svg">
<path d="M519.452 300.469C511.653 310.113 501.8 317.897 490.613 323.255C479.426 328.612 467.184 331.408 454.78 331.439C400.887 331.439 357.896 290.745 357.896 216.541C357.896 145.001 400.02 102.014 454.78 102.014C467.211 101.887 479.505 104.613 490.717 109.982C501.929 115.351 511.759 123.22 519.452 132.984V24.0322H588.708V325.803H538.036C533.108 325.803 528.381 323.845 524.895 320.36C521.41 316.875 519.452 312.149 519.452 307.221V300.469ZM519.452 182.784C514.235 176.809 507.824 171.993 500.634 168.643C493.443 165.294 485.632 163.486 477.7 163.335C450.072 163.335 429.692 183.713 429.692 216.293C429.692 248.873 450.072 269.685 477.7 269.685C485.64 269.481 493.451 267.63 500.638 264.25C507.825 260.87 514.232 256.035 519.452 250.05V182.784Z" fill="white"/>
<path d="M656.85 352.995C672.646 352.995 682.619 349.836 686.274 340.607L691.23 328.838L604.505 107.094H664.717C668.562 107.092 672.312 108.282 675.452 110.501C678.592 112.719 680.966 115.857 682.248 119.482L727.159 245.591L772.504 119.482C773.785 115.857 776.159 112.719 779.299 110.501C782.439 108.282 786.19 107.092 790.034 107.094H850.68L752.061 356.835C734.407 403.042 701.389 413.448 659.761 414.315C649.689 414.169 639.661 412.965 629.841 410.722L636.655 368.356C637.379 363.861 639.729 359.789 643.257 356.911C646.786 354.034 651.248 352.552 655.797 352.747L656.85 352.995Z" fill="white"/>
<path d="M865.672 107.586H935.362V135.212C943.854 125.333 954.283 117.301 966.003 111.612C977.724 105.923 990.486 102.697 1003.5 102.136V150.139C1003.5 154.689 1001.69 159.053 998.477 162.271C995.259 165.489 990.894 167.296 986.343 167.296C968.193 167.296 944.22 174.977 935.176 187.674V326.11H865.672V107.586Z" fill="white"/>
<path d="M1120.02 101.826C1184.69 101.826 1231.53 149.334 1231.53 223.538C1231.53 225.503 1231.15 227.451 1230.41 229.269C1229.66 231.088 1228.56 232.74 1227.17 234.133C1225.79 235.526 1224.14 236.631 1222.32 237.385C1220.51 238.139 1218.56 238.527 1216.6 238.527H1076.1C1080.19 258.843 1099.21 277.425 1131.85 277.425C1147.23 277.229 1162.31 273.183 1175.71 265.657C1178.42 264.034 1181.65 263.509 1184.74 264.188C1187.82 264.867 1190.53 266.7 1192.31 269.311L1214.61 302.325C1192.93 321.774 1156.69 331.251 1123.24 331.251C1055.78 331.251 1003.75 287.336 1003.75 216.353C1003.69 152.988 1051.69 101.826 1120.02 101.826ZM1075.17 193.249H1165.3C1163.51 177.888 1152.17 155.714 1120.08 155.714C1109.26 155.23 1098.65 158.815 1090.34 165.761C1082.03 172.708 1076.62 182.514 1075.17 193.249Z" fill="white"/>
<path d="M1360.87 101.953C1410.92 100.343 1442.02 121.96 1455.59 142.152L1423.99 171.511C1420.84 174.599 1416.69 176.463 1412.29 176.77C1407.88 177.076 1403.51 175.805 1399.96 173.184C1391.03 166.535 1380.12 163.087 1368.99 163.397C1340.06 163.397 1317.88 183.28 1317.88 216.356C1317.88 249.431 1340.06 269.748 1368.99 269.748C1381.4 269.911 1393.42 265.375 1402.62 257.05C1404.91 254.943 1407.91 253.774 1411.02 253.774C1414.13 253.774 1417.12 254.943 1419.41 257.05L1455.4 290.931C1442.27 309.947 1412.91 331.192 1365.83 331.192C1298.74 331.192 1248.13 286.719 1246.39 219.7C1244.85 156.274 1297.19 103.935 1360.87 101.953Z" fill="white"/>
<path d="M1586.11 278.108C1585.33 275.081 1583.43 272.46 1580.8 270.771C1578.17 269.083 1575 268.451 1571.92 269.003C1569.6 269.475 1567.23 269.724 1564.86 269.746C1552.47 269.746 1545.41 260.207 1545.41 247.572V167.917H1571.18C1576.11 167.917 1580.83 165.96 1584.32 162.475C1587.8 158.99 1589.76 154.264 1589.76 149.335V107.588H1545.41V47.5684H1476.15V267.021C1476.15 309.078 1500.19 331.252 1544.29 331.252C1570.13 331.252 1587.66 325.058 1595.9 316.758L1586.11 278.108Z" fill="white"/>
<path d="M1604.13 216.353C1604.13 154.785 1648.92 101.826 1723.13 101.826C1797.35 101.826 1842.63 154.785 1842.63 216.353C1842.63 277.921 1798.27 331.251 1723.13 331.251C1647.99 331.251 1604.13 277.859 1604.13 216.353ZM1771.39 216.353C1771.39 187.365 1754.23 163.394 1723.44 163.394C1692.66 163.394 1676.36 187.365 1676.36 216.353C1676.36 245.34 1693.15 269.745 1723.44 269.745C1753.74 269.745 1771.08 245.712 1771.08 216.353H1771.39Z" fill="white"/>
<path d="M1872.05 107.586H1941.74V135.212C1950.24 125.338 1960.67 117.31 1972.39 111.622C1984.11 105.933 1996.87 102.705 2009.88 102.136V150.758C2009.87 152.962 2009.42 155.141 2008.55 157.169C2007.69 159.196 2006.43 161.032 2004.85 162.571C2003.27 164.109 2001.4 165.318 1999.35 166.13C1997.3 166.941 1995.11 167.337 1992.91 167.296C1974.82 167.296 1950.79 174.977 1941.74 187.674V326.11H1872.05V107.586Z" fill="white"/>
<path d="M2034.29 246.211C2042.71 246.199 2050.95 248.686 2057.96 253.357C2064.96 258.028 2070.43 264.673 2073.66 272.451C2076.89 280.229 2077.73 288.79 2076.09 297.05C2074.45 305.31 2070.4 312.898 2064.44 318.853C2058.49 324.808 2050.9 328.862 2042.64 330.501C2034.38 332.141 2025.82 331.294 2018.04 328.065C2010.26 324.837 2003.61 319.373 1998.94 312.366C1994.27 305.359 1991.78 297.123 1991.79 288.702C1992.02 277.502 1996.56 266.823 2004.49 258.902C2012.41 250.981 2023.09 246.433 2034.29 246.211Z" fill="white"/>
<path d="M2116.43 39.8888C2116.42 32.017 2118.74 24.3182 2123.1 17.7646C2127.46 11.2109 2133.67 6.09654 2140.93 3.06724C2148.2 0.0379315 2156.2 -0.770411 2163.93 0.74433C2171.65 2.25907 2178.76 6.02895 2184.34 11.5778C2189.92 17.1267 2193.74 24.2057 2195.3 31.9209C2196.86 39.636 2196.11 47.6412 2193.12 54.9254C2190.14 62.2096 2185.06 68.4462 2178.53 72.8475C2172.01 77.2488 2164.32 79.6173 2156.45 79.6541C2151.2 79.7116 2145.99 78.7243 2141.12 76.7493C2136.26 74.7744 2131.84 71.8514 2128.11 68.1507C2124.39 64.4499 2121.44 60.0453 2119.43 55.1932C2117.43 50.3412 2116.41 45.1387 2116.43 39.8888ZM2121.39 107.279H2191.08V325.803H2121.39V107.279Z" fill="white"/>
<path d="M2218.77 216.353C2218.77 154.785 2263.55 101.826 2337.77 101.826C2412.91 101.826 2457.26 154.785 2457.26 216.353C2457.26 277.921 2412.91 331.251 2337.77 331.251C2263.55 331.251 2218.77 277.859 2218.77 216.353ZM2386.02 216.353C2386.02 187.365 2368.8 163.394 2338.01 163.394C2307.23 163.394 2291 187.365 2291 216.353C2291 245.34 2307.72 269.745 2338.01 269.745C2368.3 269.745 2385.65 245.712 2385.65 216.353H2386.02Z" fill="white"/>
<path d="M180.383 322.989C189.135 318.176 196.433 311.106 201.518 302.514C206.603 293.922 209.287 284.125 209.291 274.143V162.309C209.289 158.306 208.244 154.373 206.257 150.897C204.27 147.421 201.411 144.523 197.962 142.488C194.512 140.452 190.591 139.351 186.586 139.292C182.58 139.232 178.628 140.217 175.12 142.149L28.8677 222.669C20.1177 227.49 12.8231 234.569 7.74536 243.168C2.66757 251.767 -0.00727219 261.57 1.48492e-05 271.554V402.114C0.00438289 404.19 0.550106 406.23 1.58342 408.031C2.61674 409.833 4.10199 411.335 5.89284 412.388C7.68369 413.442 9.71835 414.011 11.7963 414.04C13.8743 414.068 15.924 413.556 17.7433 412.552L180.383 322.989Z" fill="#00D0BF"/>
<path style="mix-blend-mode:multiply" opacity="0.6" d="M175.12 142.157L28.8677 222.881C20.1177 227.714 12.8231 234.811 7.74536 243.432C2.66757 252.053 -0.00727219 261.881 1.48492e-05 271.89V337.516L209.291 222.282V162.368C209.289 158.355 208.244 154.411 206.257 150.927C204.27 147.442 201.411 144.536 197.962 142.496C194.512 140.455 190.591 139.351 186.586 139.292C182.58 139.232 178.628 140.22 175.12 142.157Z" fill="url(#paint0_linear_1160_16540)"/>
<path d="M188.581 126.638L1.76094 24.041L0.926211 84.3663C0.819622 91.5858 2.6798 98.6981 6.30718 104.94C9.93456 111.182 15.1923 116.319 21.5162 119.798L209.29 223.19V161.672C209.313 154.507 207.401 147.47 203.756 141.303C200.11 135.136 194.868 130.069 188.581 126.638Z" fill="white"/>
<path d="M90.3546 72.6379L59.0071 55.3887V140.44L90.3546 157.729V72.6379Z" fill="#1F2572"/>
<path d="M31.1912 40.5797L1.74622 24.041L0.926135 84.3514C0.821416 91.5691 2.64896 98.6797 6.21271 104.92C9.77646 111.161 14.9419 116.296 21.1549 119.774L31.3474 125.459L31.1912 40.5797Z" fill="#2E3192"/>
<path d="M188.459 126.591L177.943 120.85V206.047L209.291 223.19V161.515C209.278 154.366 207.337 147.352 203.672 141.208C200.007 135.064 194.753 130.015 188.459 126.591Z" fill="#000E33"/>
<path d="M150.284 105.756L118.936 88.5801V173.704L150.284 190.921V105.756Z" fill="#0F1A52"/>
<defs>
<linearGradient id="paint0_linear_1160_16540" x1="205.623" y1="175.149" x2="6.57786" y2="283.779" gradientUnits="userSpaceOnUse">
<stop stop-color="#1B1464"/>
<stop offset="1" stop-color="#9788FB" stop-opacity="0"/>
</linearGradient>
</defs>
</svg>

<svg width="2458" height="415" fill="none" xmlns="http://www.w3.org/2000/svg"><path d="M519.45 300.47a83.45 83.45 0 0 1-64.67 30.97c-53.9 0-96.88-40.7-96.88-114.9 0-71.54 42.12-114.53 96.88-114.53a81.28 81.28 0 0 1 64.67 30.97V24.03h69.26V325.8h-50.67a18.59 18.59 0 0 1-18.59-18.58v-6.75Zm0-117.69a56.86 56.86 0 0 0-41.75-19.44c-27.63 0-48 20.37-48 52.95s20.37 53.4 48 53.4a57.36 57.36 0 0 0 41.75-19.64v-67.27ZM656.85 353c15.8 0 25.77-3.16 29.42-12.4l4.96-11.76-86.73-221.75h60.22a18.58 18.58 0 0 1 17.53 12.4l44.9 126.1 45.35-126.1a18.57 18.57 0 0 1 17.53-12.4h60.65l-98.62 249.74c-17.65 46.21-50.67 56.62-92.3 57.49a143.72 143.72 0 0 1-29.92-3.6l6.81-42.36a18.58 18.58 0 0 1 19.15-15.61l1.05.25ZM865.67 107.59h69.7v27.62a95.26 95.26 0 0 1 68.13-33.07v48a17.18 17.18 0 0 1-17.16 17.16c-18.15 0-42.12 7.68-51.16 20.37v138.44h-69.5V107.59ZM1120.02 101.83c64.67 0 111.51 47.5 111.51 121.7a14.95 14.95 0 0 1-14.93 14.99h-140.5c4.09 20.32 23.11 38.9 55.75 38.9a91.96 91.96 0 0 0 43.86-11.76 12.4 12.4 0 0 1 16.6 3.65l22.3 33.01c-21.68 19.45-57.92 28.93-91.37 28.93-67.46 0-119.49-43.91-119.49-114.9-.06-63.36 47.94-114.52 116.27-114.52Zm-44.85 91.42h90.13c-1.79-15.36-13.13-37.54-45.22-37.54a43.35 43.35 0 0 0-44.91 37.54ZM1360.87 101.95c50.05-1.6 81.15 20.01 94.72 40.2l-31.6 29.36a18.56 18.56 0 0 1-24.03 1.67 49.55 49.55 0 0 0-30.97-9.78c-28.93 0-51.11 19.88-51.11 52.96 0 33.07 22.18 53.39 51.11 53.39a49.17 49.17 0 0 0 33.63-12.7 12.4 12.4 0 0 1 16.79 0l35.99 33.88c-13.13 19.02-42.49 40.26-89.57 40.26-67.09 0-117.7-44.47-119.44-111.49-1.54-63.43 50.8-115.76 114.48-117.75ZM1586.11 278.1a12.4 12.4 0 0 0-14.19-9.1c-2.32.48-4.69.72-7.06.75-12.39 0-19.45-9.54-19.45-22.18v-79.65h25.77a18.59 18.59 0 0 0 18.58-18.58v-41.75h-44.35V47.57h-69.26v219.45c0 42.06 24.04 64.23 68.14 64.23 25.84 0 43.37-6.2 51.61-14.5l-9.79-38.64ZM1604.13 216.35c0-61.56 44.79-114.52 119-114.52 74.22 0 119.5 52.95 119.5 114.52 0 61.57-44.36 114.9-119.5 114.9s-119-53.4-119-114.9Zm167.26 0c0-28.98-17.16-52.96-47.95-52.96-30.78 0-47.08 23.98-47.08 52.96 0 28.99 16.79 53.4 47.08 53.4 30.3 0 47.64-24.04 47.64-53.4h.31ZM1872.05 107.59h69.69v27.62a95.4 95.4 0 0 1 68.14-33.07v48.62a16.6 16.6 0 0 1-10.53 15.37c-2.05.81-4.24 1.2-6.44 1.17-18.09 0-42.12 7.68-51.17 20.37v138.44h-69.69V107.59ZM2034.29 246.21a42.58 42.58 0 0 1 39.37 26.24 42.54 42.54 0 0 1-31.02 58.05 42.55 42.55 0 0 1-50.85-41.8 43.36 43.36 0 0 1 42.5-42.49ZM2116.43 39.89a39.85 39.85 0 0 1 47.5-39.15 39.83 39.83 0 0 1-7.48 78.91 39.63 39.63 0 0 1-37.02-24.46 39.77 39.77 0 0 1-3-15.3Zm4.96 67.39h69.69V325.8h-69.69V107.28ZM2218.77 216.35c0-61.56 44.78-114.52 119-114.52 75.14 0 119.49 52.95 119.49 114.52 0 61.57-44.35 114.9-119.49 114.9-74.22 0-119-53.4-119-114.9Zm167.25 0c0-28.98-17.22-52.96-48.01-52.96-30.78 0-47.01 23.98-47.01 52.96 0 28.99 16.72 53.4 47.01 53.4s47.64-24.04 47.64-53.4h.37Z" fill="#fff"/><path d="M180.38 322.99a55.8 55.8 0 0 0 28.91-48.85V162.31a23.02 23.02 0 0 0-22.7-23.02c-4.01-.06-7.96.93-11.47 2.86L28.87 222.67A55.8 55.8 0 0 0 0 271.55v130.56a11.94 11.94 0 0 0 17.74 10.44L180.38 323Z" fill="#00D0BF"/><path style="mix-blend-mode:multiply" opacity=".6" d="M175.12 142.16 28.87 222.88A55.86 55.86 0 0 0 0 271.9v65.63l209.3-115.24v-59.91a23.12 23.12 0 0 0-11.34-19.87 23 23 0 0 0-22.84-.34Z" fill="url(#a)"/><path d="M188.58 126.64 1.76 24.04.93 84.37a39.78 39.78 0 0 0 20.59 35.43l187.77 103.39v-61.52a39.78 39.78 0 0 0-20.7-35.03Z" fill="#fff"/><path d="M90.35 72.64 59.01 55.39v85.05l31.34 17.29v-85.1Z" fill="#1F2572"/><path d="M31.2 40.58 1.74 24.04.93 84.35a40.31 40.31 0 0 0 5.28 20.57 39.38 39.38 0 0 0 14.94 14.85l10.2 5.69-.16-84.88Z" fill="#2E3192"/><path d="m188.46 126.6-10.52-5.75v85.2l31.35 17.14v-61.68a39.78 39.78 0 0 0-20.83-34.92Z" fill="#000E33"/><path d="m150.28 105.76-31.34-17.18v85.12l31.34 17.22v-85.16Z" fill="#0F1A52"/><defs><linearGradient id="a" x1="205.62" y1="175.15" x2="6.58" y2="283.78" gradientUnits="userSpaceOnUse"><stop stop-color="#1B1464"/><stop offset="1" stop-color="#9788FB" stop-opacity="0"/></linearGradient></defs></svg>
